X:1
T:Se legete nel viso
T:Luca Marenzio
T:Source : Canzonette alla Napolitana a tre voci---Venetia-G.Visconti---1587. Editor : André Vierendeels ( 28/04/17).
T:Notes : Original clefs : G2, C1, F3 Editorial accidentals above the staff Square bracket indicates ligature "Seconda impressione" Music collected by Attilio Gualtieri   
T:Se legete nel viso
T:©
T:©
C:Luca Marenzio
Z:©
%%score [ 1 2 3 ]
L:1/8
Q:1/4=120
M:4/4
K:F
V:1 treble nm="Soprano 1" snm="S 1"
V:2 treble nm="Soprano 2" snm="S 2"
V:3 bass nm="Bass" snm="B"
V:1
"^1)" c2 c2 c4 | c2 c2 d4- | d2 c2 B2 A2 |1 G4 G4 :|2 G4 G4 |: z4 z2 c2 | A3 B c2 c2 | d4 c2 F2 | %8
w: Se le- ge-|te nel vi-|* so'i miei mar-|ti- ri,|ti- ri|per-|che bra- ma- te|tan- to, per-|
w: For- se per-|che di not-|* te non po-|te- te,|te- te,|scor-|ger ben quel do-|lo- re, che|
 D3 E F2 F2 | G4 F2 f2 | d3 e f2 e2 | d8 | e4 z2 c2 | d6 c2 | B4 A4- | A4 d4- | d2 c2 B4- | %17
w: che bra- ma- te|tan- to, per-|che bra- ma- tr|tan-|to, u-|dir- li'ac-|col- ti|_ nel|_ mio fle-|
w: v'ha di pro- pri-|a man, che|v'ha di pro- pri-|a|man, scol-|pi- to'A-|mo- re,|_ scol-|* pi- to'A-|
 B2 A2 G4 | F8 :| %19
w: * bil can-|to.|
w: * * mo-|re|
V:2
"^2)""^1)" A2 A2 A4 | G2 A2 B4- | B2 A2 G2 F2 |1 E4 E4 :|2 E4 E2 E2 |: C3 D E2 E2 | F4 E2 A2 | %7
w: Se le- ge-|te nel vi-|* so'i miei mar-|ti- ri,|ti- ri, per|che bra- ma- te|tan- to, per|
w: Se que- sto'è|per- che voi|_ Cin- thia no-|vel- la|vel- la, co'l|vo- stro vi- so'a-|dor- no, co'l|
 F3 G A2 A2 | B4 A2 d2 | B4 z2 d2 | B3 c d2 c2- | c2 =BA B4 | c4 A4 | B6 A2 | G4 F4- | F4 B4- | %16
w: che bra- ma- te|tan- * *|to, per-|che bra- ma- te|_ tan- * *|to, u-|dir- li'ac-|col- ti|_ nel|
w: vo- stro vi- so'a-|dor- * *|no, non|schia- ri- te la|_ not- * *|te, à|par del|gior- *||
 B2 A2 G2 F2 | E2 F4 E2 | F8 :| %19
w: _ mio fle- bil|can- * *|to.|
w: ||no.|
V:3
"^3)""^1)""^4)" F,2 F,2 F,4 | E,2 F,2 B,,4- | B,,2 C,2 _E,2 F,2 |1 C,4 C,4 :|2 C,4 C,2 C2 |: %5
w: Se le- ge-|te nel vi-|* co'i miei mar-|ti- ri,|ti- ri, per-|
w: Ma te- mo,|che vo- glia-|* te ch'io co-|no- sca,|no- sca, a|
 A,3 B, C2 C2 | D4 C2 F,2 | D,3 E, F,2 F,2 | G,4 F,2 B,2 | G,3 A, B,4- | B,4 F,4 | G,8 | C,4 F,4 | %13
w: che bra- ma- te|tan- to, per|che bra- ma- te|tan- to, per|che bra- ma-|* te|tan-|to, u-|
w: ma- ni- fe- sta|pro- va, ch'a|vo- stra cru- del-|* ta, ch'a|vo- stra cru-|* del-||ta, can-|
 B,6 F,2 | G,4 D,4 | F,2 E,2 D,2 C,2 | B,,8 | C,8 | F,8 :| %19
w: dir- li'ac-|col- ti|nel mio fle- bil|can-||to.|
w: to non|gio- *||||va.|

